icons/editor-color-swatch-2-filled.svg

<svg width="24" height="24" viewBox="0 0 24 24" fill="none" xmlns="http://www.w3.org/2000/svg">
<g id="color-swatch-02">
<path id="Icon" d="M17.3337 21.6004C16.2021 21.6004 15.1169 21.1509 14.3167 20.3507C13.5166 19.5506 13.0671 18.4653 13.0671 17.3337V4.53372C13.0671 3.96793 13.2918 3.42531 13.6919 3.02523C14.092 2.62515 14.6346 2.40039 15.2004 2.40039H19.4671C20.0328 2.40039 20.5755 2.62515 20.9755 3.02523C21.3756 3.42531 21.6004 3.96793 21.6004 4.53372V17.3337C21.6004 18.4653 21.1509 19.5506 20.3507 20.3507C19.5506 21.1509 18.4653 21.6004 17.3337 21.6004ZM17.3337 21.6004H4.53372C3.96793 21.6004 3.42531 21.3756 3.02523 20.9755C2.62515 20.5755 2.40039 20.0328 2.40039 19.4671V15.2004C2.40039 14.6346 2.62515 14.092 3.02523 13.6919C3.42531 13.2918 3.96793 13.0671 4.53372 13.0671H6.98706M13.0671 7.04039L10.9337 4.90706C10.5337 4.50712 9.99114 4.28245 9.42546 4.28245C8.85977 4.28245 8.31725 4.50712 7.91719 4.90706L4.90066 7.92359C4.50072 8.32365 4.27605 8.86617 4.27605 9.43186C4.27605 9.99754 4.50072 10.5401 4.90066 10.9401L14.5007 20.5401M17.3337 17.3337V17.3444" stroke="black" stroke-width="2" stroke-linecap="round" stroke-linejoin="round"/>
</g>
</svg>

<svg xmlns="http://www.w3.org/2000/svg" width="24" height="24" fill="none" viewBox="0 0 24 24"><path stroke="currentColor" stroke-linecap="round" stroke-linejoin="round" stroke-width="2" d="M17.334 21.6a4.267 4.267 0 0 1-4.267-4.266v-12.8A2.133 2.133 0 0 1 15.2 2.4h4.267A2.133 2.133 0 0 1 21.6 4.534v12.8a4.266 4.266 0 0 1-4.266 4.266m0 0h-12.8A2.133 2.133 0 0 1 2.4 19.467V15.2a2.133 2.133 0 0 1 2.134-2.133h2.453m6.08-6.027-2.133-2.133a2.133 2.133 0 0 0-3.017 0L4.901 7.924a2.133 2.133 0 0 0 0 3.016l9.6 9.6m2.833-3.206v.01"/></svg>
